Newaita-dark/apps/32/com.github.artemanufrij.graphui.svg

<svg height="32pt" viewBox="0 0 32 32" width="32pt" xmlns="http://www.w3.org/2000/svg" xmlns:xlink="http://www.w3.org/1999/xlink"><linearGradient id="a" gradientUnits="userSpaceOnUse" x1="15.876521" x2="15.876521" y1="28.033935" y2="29.35697887502"><stop offset="0" stop-opacity=".27451"/><stop offset="1" stop-opacity="0"/></linearGradient><linearGradient id="b"><stop offset="0" stop-opacity=".313725"/><stop offset=".222222" stop-opacity=".27451"/><stop offset="1" stop-opacity="0"/></linearGradient><radialGradient id="c" cx="450.90894" cy="189.57936" gradientTransform="matrix(.00000017 -.0781325 -.140638 -.0000001 52.130648 63.595334)" gradientUnits="userSpaceOnUse" r="21.166656" xlink:href="#b"/><radialGradient id="d" cx="450.90894" cy="189.57936" gradientTransform="matrix(-.00000017 .0781325 .140638 .0000001 -20.377614 -7.527479)" gradientUnits="userSpaceOnUse" r="21.166656" xlink:href="#b"/><radialGradient id="e" cx="450.90894" cy="189.57936" gradientTransform="matrix(-.00000017 -.0781325 .140638 -.0000001 -20.377614 63.595334)" gradientUnits="userSpaceOnUse" r="21.166656" xlink:href="#b"/><radialGradient id="f" cx="450.90894" cy="189.57936" gradientTransform="matrix(.00000017 .0781325 -.140638 .0000001 52.130646 -7.527479)" gradientUnits="userSpaceOnUse" r="21.166656" xlink:href="#b"/><linearGradient id="g" gradientUnits="userSpaceOnUse" x1="10.58434912498" x2="10.58434912498" y1="28.033934" y2="2.89610475004"><stop offset="0" stop-color="#8d6e63"/><stop offset="1" stop-color="#a1887f"/></linearGradient><linearGradient id="h"><stop offset="0" stop-color="#bdbdbd"/><stop offset="1" stop-color="#e0e0e0"/></linearGradient><linearGradient id="i" gradientUnits="userSpaceOnUse" x1="960" x2="960.00006" xlink:href="#h" y1="1695.1182" y2="175.11812"/><linearGradient id="j" gradientUnits="userSpaceOnUse" x1="15.87647900772" x2="15.87648" xlink:href="#h" y1="28.0338647916" y2="2.89610363394"/><path d="m5.953125 27.9375h19.847656v1.46875h-19.847656zm0 0" fill="url(#a)"/><path d="m25.800781 28.035156h2.644531v-1.324218h-2.644531zm0 0" fill="url(#c)"/><path d="m5.953125 28.035156h-2.644531v1.320313h2.644531zm0 0" fill="url(#d)"/><path d="m5.953125 28.035156h-2.644531v-1.324218h2.644531zm0 0" fill="url(#e)"/><path d="m25.800781 28.035156h2.644531v1.320313h-2.644531zm0 0" fill="url(#f)"/><path d="m4.628906 2.894531h22.492188c.730468 0 1.324218.59375 1.324218 1.324219v22.492188c0 .730468-.59375 1.324218-1.324218 1.324218h-22.492188c-.730468 0-1.320312-.59375-1.320312-1.324218v-22.492188c0-.730469.589844-1.324219 1.320312-1.324219zm0 0" fill="url(#g)"/><path d="m4.628906 2.894531c-.730468 0-1.320312.589844-1.320312 1.324219v.164062c0-.730468.589844-1.324218 1.320312-1.320312h22.492188c.734375-.003906 1.324218.589844 1.324218 1.320312v-.164062c0-.734375-.589843-1.324219-1.324218-1.324219zm0 0" fill="#e6e6e6" fill-opacity=".392157"/><path d="m4.628906 28.035156c-.730468 0-1.320312-.589844-1.320312-1.324218v-.164063c0 .730469.589844 1.320313 1.320312 1.320313h22.492188c.734375 0 1.324218-.589844 1.324218-1.320313v.164063c0 .734374-.589843 1.324218-1.324218 1.324218zm0 0" fill-opacity=".196078"/><path d="m74.055428-168.691922h359.840637c11.686384 0 21.185477 9.499093 21.185477 21.185477v359.840637c0 11.686384-9.499093 21.185477-21.185477 21.185477h-359.840637c-11.686384 0-21.122983-9.499093-21.122983-21.185477v-359.840637c0-11.686384 9.436599-21.185477 21.122983-21.185477zm0 0" fill="none" stroke="#212121" stroke-linecap="round" stroke-width="3" transform="matrix(.062506 0 0 .062506 0 13.438783)"/><path d="m958.727356 492.472662c-88.101824 5.196355-156.835419 27.635157-209.035159 67.552605-52.19974 39.681251-86.684637 96.368752-108.887241 165.574742-44.405209 138.648179-43.460417 329.496098-43.460417 569.473184h45.35c0-2.361979 0-4.723958 0-7.085937l31.886719 18.423438 140.065367-242.575264-34.721094-20.076823-137.230992 237.851305c0-233.363545 1.653386-417.83412 41.334636-542.074226 20.313021-63.301042 49.837761-110.304428 93.061981-143.608335 43.460417-33.303906 102.273699-53.38073 184.234377-58.104688zm5.196354 0-2.598177 45.350001c81.960678 4.723958 140.77396 24.800782 184.234377 58.104688 43.460417 33.303907 72.74896 80.307293 93.061981 143.608335 39.917448 124.9487 41.334636 311.072661 41.334636 546.798184l-140.065367-242.575263-34.484896 20.076823 140.065366 242.575264 34.484897-20.076824v8.739323h45.35c0-239.977086.944792-430.825005-43.460417-569.473184-22.202605-69.20599-56.687501-125.893491-108.887241-165.574742-52.19974-39.917448-120.933335-62.35625-209.035159-67.552605zm-23.85599 182.580992v179.982815h39.917449v-179.982815zm0 0" fill="url(#i)" stroke="#212121" stroke-linecap="round" stroke-linejoin="round" stroke-width="11.338583" transform="scale(.016538)"/><path d="m15.875 5.542969c-1.648438 0-2.976562 1.328125-2.976562 2.976562 0 1.648438 1.328124 2.976563 2.976562 2.976563 1.652344 0 2.976562-1.328125 2.976562-2.976563 0-1.648437-1.324218-2.976562-2.976562-2.976562zm-2.644531 7.9375c-.734375 0-1.324219.589843-1.324219 1.324219v1.984374c0 .730469.589844 1.320313 1.324219 1.320313h5.292969c.730468 0 1.320312-.589844 1.320312-1.320313v-1.984374c0-.734376-.589844-1.324219-1.320312-1.324219zm-5.292969 7.277343c-.730469 0-1.324219.589844-1.324219 1.324219v1.984375c0 .730469.59375 1.320313 1.324219 1.320313h5.292969c.734375 0 1.324219-.589844 1.324219-1.320313v-1.984375c0-.734375-.589844-1.324219-1.324219-1.324219zm10.585938 0c-.734376 0-1.324219.589844-1.324219 1.324219v1.984375c0 .730469.589843 1.320313 1.324219 1.320313h5.292968c.730469 0 1.320313-.589844 1.320313-1.320313v-1.984375c0-.734375-.589844-1.324219-1.320313-1.324219zm0 0" fill="url(#j)"/><path d="m15.875 5.542969c-1.648438 0-2.976562 1.328125-2.976562 2.976562 0 .082031.003906.164063.011718.246094.125-1.53125 1.402344-2.726563 2.964844-2.726563 1.566406 0 2.84375 1.195313 2.96875 2.726563.007812-.082031.007812-.164063.007812-.246094 0-1.648437-1.324218-2.976562-2.976562-2.976562zm-2.644531 7.9375c-.734375 0-1.324219.589843-1.324219 1.324219v.496093c0-.734375.589844-1.324219 1.324219-1.324219h5.292969c.730468 0 1.320312.589844 1.320312 1.324219v-.496093c0-.734376-.589844-1.324219-1.320312-1.324219zm-5.292969 7.277343c-.730469 0-1.324219.589844-1.324219 1.324219v.496094c0-.734375.59375-1.324219 1.324219-1.324219h5.292969c.734375 0 1.324219.589844 1.324219 1.324219v-.496094c0-.734375-.589844-1.324219-1.324219-1.324219zm10.585938 0c-.734376 0-1.324219.589844-1.324219 1.324219v.496094c0-.734375.589843-1.324219 1.324219-1.324219h5.292968c.730469 0 1.320313.589844 1.320313 1.324219v-.496094c0-.734375-.589844-1.324219-1.320313-1.324219zm0 0" fill="#fff" fill-opacity=".392157"/><path d="m12.917969 8.851562c-.011719.105469-.019531.21875-.019531.328126 0 1.648437 1.328124 2.976562 2.976562 2.976562 1.652344 0 2.976562-1.328125 2.976562-2.976562 0-.109376-.003906-.222657-.015624-.328126-.164063 1.492188-1.421876 2.644532-2.960938 2.644532-1.535156 0-2.792969-1.152344-2.957031-2.644532zm-1.011719 7.9375v.660157c0 .734375.589844 1.324219 1.324219 1.324219h5.292969c.730468 0 1.320312-.589844 1.320312-1.324219v-.660157c0 .730469-.589844 1.320313-1.320312 1.320313h-5.292969c-.734375 0-1.324219-.589844-1.324219-1.320313zm-5.292969 7.277344v.660156c0 .734376.59375 1.324219 1.324219 1.324219h5.292969c.734375 0 1.324219-.589843 1.324219-1.324219v-.660156c0 .730469-.589844 1.320313-1.324219 1.320313h-5.292969c-.730469 0-1.324219-.589844-1.324219-1.320313zm10.585938 0v.660156c0 .734376.589843 1.324219 1.324219 1.324219h5.292968c.730469 0 1.320313-.589843 1.320313-1.324219v-.660156c0 .730469-.589844 1.320313-1.320313 1.320313h-5.292968c-.734376 0-1.324219-.589844-1.324219-1.320313zm0 0" fill-opacity=".235294"/><path d="m959.908345 335.164848c-99.675522 0-179.982814 80.307293-179.982814 179.982815s80.307292 179.982815 179.982814 179.982815c99.91172 0 179.982815-80.307293 179.982815-179.982815s-80.071095-179.982815-179.982815-179.982815zm-159.905991 479.954173c-44.405209 0-80.071095 35.665886-80.071095 80.071094v119.988544c0 44.169011 35.665886 79.834896 80.071095 79.834896h320.048181c44.169011 0 79.834897-35.665885 79.834897-79.834896v-119.988544c0-44.405208-35.665886-80.071094-79.834897-80.071094zm-320.048181 440.036724c-44.169011 0-80.071095 35.665886-80.071095 80.071095v119.988543c0 44.169011 35.902084 79.834897 80.071095 79.834897h320.048181c44.405209 0 80.071095-35.665886 80.071095-79.834897v-119.988543c0-44.405209-35.665886-80.071095-80.071095-80.071095zm640.096362 0c-44.405209 0-80.071095 35.665886-80.071095 80.071095v119.988543c0 44.169011 35.665886 79.834897 80.071095 79.834897h320.048181c44.169011 0 79.834897-35.665886 79.834897-79.834897v-119.988543c0-44.405209-35.665886-80.071095-79.834897-80.071095zm0 0" fill="none" stroke="#212121" stroke-linecap="round" stroke-linejoin="round" stroke-width="11.338583" transform="scale(.016538)"/></svg>

<?xml version="1.0" encoding="UTF-8"?>
<svg xmlns="http://www.w3.org/2000/svg" xmlns:xlink="http://www.w3.org/1999/xlink" width="32pt" height="32pt" viewBox="0 0 32 32" version="1.1">
<defs>
<linearGradient id="linear0" gradientUnits="userSpaceOnUse" x1="254" y1="233.5" x2="254" y2="254.66667" gradientTransform="matrix(0.062506,0,0,0.062506,-0.00000250024,13.438784)">
<stop offset="0" style="stop-color:rgb(0%,0%,0%);stop-opacity:0.27451;"/>
<stop offset="1" style="stop-color:rgb(0%,0%,0%);stop-opacity:0;"/>
</linearGradient>
<radialGradient id="radial0" gradientUnits="userSpaceOnUse" cx="450.90894" cy="189.57936" fx="450.90894" fy="189.57936" r="21.166656" gradientTransform="matrix(0.00000017417,-0.0781325,-0.140638,-0.000000101539,52.130648,63.595334)">
<stop offset="0" style="stop-color:rgb(0%,0%,0%);stop-opacity:0.313725;"/>
<stop offset="0.222222" style="stop-color:rgb(0%,0%,0%);stop-opacity:0.27451;"/>
<stop offset="1" style="stop-color:rgb(0%,0%,0%);stop-opacity:0;"/>
</radialGradient>
<radialGradient id="radial1" gradientUnits="userSpaceOnUse" cx="450.90894" cy="189.57936" fx="450.90894" fy="189.57936" r="21.166656" gradientTransform="matrix(-0.00000017417,0.0781325,0.140638,0.000000101539,-20.377614,-7.527479)">
<stop offset="0" style="stop-color:rgb(0%,0%,0%);stop-opacity:0.313725;"/>
<stop offset="0.222222" style="stop-color:rgb(0%,0%,0%);stop-opacity:0.27451;"/>
<stop offset="1" style="stop-color:rgb(0%,0%,0%);stop-opacity:0;"/>
</radialGradient>
<radialGradient id="radial2" gradientUnits="userSpaceOnUse" cx="450.90894" cy="189.57936" fx="450.90894" fy="189.57936" r="21.166656" gradientTransform="matrix(-0.00000017417,-0.0781325,0.140638,-0.000000101539,-20.377614,63.595334)">
<stop offset="0" style="stop-color:rgb(0%,0%,0%);stop-opacity:0.313725;"/>
<stop offset="0.222222" style="stop-color:rgb(0%,0%,0%);stop-opacity:0.27451;"/>
<stop offset="1" style="stop-color:rgb(0%,0%,0%);stop-opacity:0;"/>
</radialGradient>
<radialGradient id="radial3" gradientUnits="userSpaceOnUse" cx="450.90894" cy="189.57936" fx="450.90894" fy="189.57936" r="21.166656" gradientTransform="matrix(0.00000017417,0.0781325,-0.140638,0.000000101539,52.130646,-7.527479)">
<stop offset="0" style="stop-color:rgb(0%,0%,0%);stop-opacity:0.313725;"/>
<stop offset="0.222222" style="stop-color:rgb(0%,0%,0%);stop-opacity:0.27451;"/>
<stop offset="1" style="stop-color:rgb(0%,0%,0%);stop-opacity:0;"/>
</radialGradient>
<linearGradient id="linear1" gradientUnits="userSpaceOnUse" x1="169.33333" y1="233.5" x2="169.33333" y2="-168.66666" gradientTransform="matrix(0.062506,0,0,0.062506,0,13.438783)">
<stop offset="0" style="stop-color:rgb(55.294118%,43.137255%,38.823529%);stop-opacity:1;"/>
<stop offset="1" style="stop-color:rgb(63.137255%,53.333333%,49.803922%);stop-opacity:1;"/>
</linearGradient>
<linearGradient id="linear2" gradientUnits="userSpaceOnUse" x1="960" y1="1695.1182" x2="960.00006" y2="175.11812" >
<stop offset="0" style="stop-color:rgb(74.117647%,74.117647%,74.117647%);stop-opacity:1;"/>
<stop offset="1" style="stop-color:rgb(87.843137%,87.843137%,87.843137%);stop-opacity:1;"/>
</linearGradient>
<linearGradient id="linear3" gradientUnits="userSpaceOnUse" x1="959.99994" y1="1695.1182" x2="960" y2="175.11813" gradientTransform="matrix(0.016538,0,0,0.016538,0,0)">
<stop offset="0" style="stop-color:rgb(74.117647%,74.117647%,74.117647%);stop-opacity:1;"/>
<stop offset="1" style="stop-color:rgb(87.843137%,87.843137%,87.843137%);stop-opacity:1;"/>
</linearGradient>
</defs>
<g id="surface1">
<path style=" stroke:none;fill-rule:nonzero;fill:url(#linear0);" d="M 5.953125 27.9375 L 25.800781 27.9375 L 25.800781 29.40625 L 5.953125 29.40625 Z M 5.953125 27.9375 "/>
<path style=" stroke:none;fill-rule:nonzero;fill:url(#radial0);" d="M 25.800781 28.035156 L 28.445312 28.035156 L 28.445312 26.710938 L 25.800781 26.710938 Z M 25.800781 28.035156 "/>
<path style=" stroke:none;fill-rule:nonzero;fill:url(#radial1);" d="M 5.953125 28.035156 L 3.308594 28.035156 L 3.308594 29.355469 L 5.953125 29.355469 Z M 5.953125 28.035156 "/>
<path style=" stroke:none;fill-rule:nonzero;fill:url(#radial2);" d="M 5.953125 28.035156 L 3.308594 28.035156 L 3.308594 26.710938 L 5.953125 26.710938 Z M 5.953125 28.035156 "/>
<path style=" stroke:none;fill-rule:nonzero;fill:url(#radial3);" d="M 25.800781 28.035156 L 28.445312 28.035156 L 28.445312 29.355469 L 25.800781 29.355469 Z M 25.800781 28.035156 "/>
<path style=" stroke:none;fill-rule:nonzero;fill:url(#linear1);" d="M 4.628906 2.894531 L 27.121094 2.894531 C 27.851562 2.894531 28.445312 3.488281 28.445312 4.21875 L 28.445312 26.710938 C 28.445312 27.441406 27.851562 28.035156 27.121094 28.035156 L 4.628906 28.035156 C 3.898438 28.035156 3.308594 27.441406 3.308594 26.710938 L 3.308594 4.21875 C 3.308594 3.488281 3.898438 2.894531 4.628906 2.894531 Z M 4.628906 2.894531 "/>
<path style=" stroke:none;fill-rule:nonzero;fill:rgb(90.196078%,90.196078%,90.196078%);fill-opacity:0.392157;" d="M 4.628906 2.894531 C 3.898438 2.894531 3.308594 3.484375 3.308594 4.21875 L 3.308594 4.382812 C 3.308594 3.652344 3.898438 3.058594 4.628906 3.0625 L 27.121094 3.0625 C 27.855469 3.058594 28.445312 3.652344 28.445312 4.382812 L 28.445312 4.21875 C 28.445312 3.484375 27.855469 2.894531 27.121094 2.894531 Z M 4.628906 2.894531 "/>
<path style=" stroke:none;fill-rule:nonzero;fill:rgb(0%,0%,0%);fill-opacity:0.196078;" d="M 4.628906 28.035156 C 3.898438 28.035156 3.308594 27.445312 3.308594 26.710938 L 3.308594 26.546875 C 3.308594 27.277344 3.898438 27.867188 4.628906 27.867188 L 27.121094 27.867188 C 27.855469 27.867188 28.445312 27.277344 28.445312 26.546875 L 28.445312 26.710938 C 28.445312 27.445312 27.855469 28.035156 27.121094 28.035156 Z M 4.628906 28.035156 "/>
<path style="fill:none;stroke-width:3;stroke-linecap:round;stroke-linejoin:miter;stroke:rgb(12.941176%,12.941176%,12.941176%);stroke-opacity:1;stroke-miterlimit:4;" d="M 74.055428 -168.691922 L 433.896065 -168.691922 C 445.582449 -168.691922 455.081542 -159.192829 455.081542 -147.506445 L 455.081542 212.334192 C 455.081542 224.020576 445.582449 233.519669 433.896065 233.519669 L 74.055428 233.519669 C 62.369044 233.519669 52.932445 224.020576 52.932445 212.334192 L 52.932445 -147.506445 C 52.932445 -159.192829 62.369044 -168.691922 74.055428 -168.691922 Z M 74.055428 -168.691922 " transform="matrix(0.062506,0,0,0.062506,0,13.438783)"/>
<path style="fill-rule:nonzero;fill:url(#linear2);stroke-width:11.338583;stroke-linecap:round;stroke-linejoin:round;stroke:rgb(12.941176%,12.941176%,12.941176%);stroke-opacity:1;stroke-miterlimit:4;" d="M 958.727356 492.472662 C 870.625532 497.669017 801.891937 520.107819 749.692197 560.025267 C 697.492457 599.706518 663.00756 656.394019 640.804956 725.600009 C 596.399747 864.248188 597.344539 1055.096107 597.344539 1295.073193 L 642.694539 1295.073193 C 642.694539 1292.711214 642.694539 1290.349235 642.694539 1287.987256 L 674.581258 1306.410694 L 814.646625 1063.83543 L 779.925531 1043.758607 L 642.694539 1281.609912 C 642.694539 1048.246367 644.347925 863.775792 684.029175 739.535686 C 704.342196 676.234644 733.866936 629.231258 777.091156 595.927351 C 820.551573 562.623445 879.364855 542.546621 961.325533 537.822663 Z M 963.92371 492.472662 L 961.325533 537.822663 C 1043.286211 542.546621 1102.099493 562.623445 1145.55991 595.927351 C 1189.020327 629.231258 1218.30887 676.234644 1238.621891 739.535686 C 1278.539339 864.484386 1279.956527 1050.608347 1279.956527 1286.33387 L 1139.89116 1043.758607 L 1105.406264 1063.83543 L 1245.47163 1306.410694 L 1279.956527 1286.33387 C 1279.956527 1289.404443 1279.956527 1292.238818 1279.956527 1295.073193 L 1325.306527 1295.073193 C 1325.306527 1055.096107 1326.251319 864.248188 1281.84611 725.600009 C 1259.643505 656.394019 1225.158609 599.706518 1172.958869 560.025267 C 1120.759129 520.107819 1052.025534 497.669017 963.92371 492.472662 Z M 940.06772 675.053654 L 940.06772 855.036469 L 979.985169 855.036469 L 979.985169 675.053654 Z M 940.06772 675.053654 " transform="matrix(0.016538,0,0,0.016538,0,0)"/>
<path style=" stroke:none;fill-rule:nonzero;fill:url(#linear3);" d="M 15.875 5.542969 C 14.226562 5.542969 12.898438 6.871094 12.898438 8.519531 C 12.898438 10.167969 14.226562 11.496094 15.875 11.496094 C 17.527344 11.496094 18.851562 10.167969 18.851562 8.519531 C 18.851562 6.871094 17.527344 5.542969 15.875 5.542969 Z M 13.230469 13.480469 C 12.496094 13.480469 11.90625 14.070312 11.90625 14.804688 L 11.90625 16.789062 C 11.90625 17.519531 12.496094 18.109375 13.230469 18.109375 L 18.523438 18.109375 C 19.253906 18.109375 19.84375 17.519531 19.84375 16.789062 L 19.84375 14.804688 C 19.84375 14.070312 19.253906 13.480469 18.523438 13.480469 Z M 7.9375 20.757812 C 7.207031 20.757812 6.613281 21.347656 6.613281 22.082031 L 6.613281 24.066406 C 6.613281 24.796875 7.207031 25.386719 7.9375 25.386719 L 13.230469 25.386719 C 13.964844 25.386719 14.554688 24.796875 14.554688 24.066406 L 14.554688 22.082031 C 14.554688 21.347656 13.964844 20.757812 13.230469 20.757812 Z M 18.523438 20.757812 C 17.789062 20.757812 17.199219 21.347656 17.199219 22.082031 L 17.199219 24.066406 C 17.199219 24.796875 17.789062 25.386719 18.523438 25.386719 L 23.816406 25.386719 C 24.546875 25.386719 25.136719 24.796875 25.136719 24.066406 L 25.136719 22.082031 C 25.136719 21.347656 24.546875 20.757812 23.816406 20.757812 Z M 18.523438 20.757812 "/>
<path style=" stroke:none;fill-rule:nonzero;fill:rgb(100%,100%,100%);fill-opacity:0.392157;" d="M 15.875 5.542969 C 14.226562 5.542969 12.898438 6.871094 12.898438 8.519531 C 12.898438 8.601562 12.902344 8.683594 12.910156 8.765625 C 13.035156 7.234375 14.3125 6.039062 15.875 6.039062 C 17.441406 6.039062 18.71875 7.234375 18.84375 8.765625 C 18.851562 8.683594 18.851562 8.601562 18.851562 8.519531 C 18.851562 6.871094 17.527344 5.542969 15.875 5.542969 Z M 13.230469 13.480469 C 12.496094 13.480469 11.90625 14.070312 11.90625 14.804688 L 11.90625 15.300781 C 11.90625 14.566406 12.496094 13.976562 13.230469 13.976562 L 18.523438 13.976562 C 19.253906 13.976562 19.84375 14.566406 19.84375 15.300781 L 19.84375 14.804688 C 19.84375 14.070312 19.253906 13.480469 18.523438 13.480469 Z M 7.9375 20.757812 C 7.207031 20.757812 6.613281 21.347656 6.613281 22.082031 L 6.613281 22.578125 C 6.613281 21.84375 7.207031 21.253906 7.9375 21.253906 L 13.230469 21.253906 C 13.964844 21.253906 14.554688 21.84375 14.554688 22.578125 L 14.554688 22.082031 C 14.554688 21.347656 13.964844 20.757812 13.230469 20.757812 Z M 18.523438 20.757812 C 17.789062 20.757812 17.199219 21.347656 17.199219 22.082031 L 17.199219 22.578125 C 17.199219 21.84375 17.789062 21.253906 18.523438 21.253906 L 23.816406 21.253906 C 24.546875 21.253906 25.136719 21.84375 25.136719 22.578125 L 25.136719 22.082031 C 25.136719 21.347656 24.546875 20.757812 23.816406 20.757812 Z M 18.523438 20.757812 "/>
<path style=" stroke:none;fill-rule:nonzero;fill:rgb(0%,0%,0%);fill-opacity:0.235294;" d="M 12.917969 8.851562 C 12.90625 8.957031 12.898438 9.070312 12.898438 9.179688 C 12.898438 10.828125 14.226562 12.15625 15.875 12.15625 C 17.527344 12.15625 18.851562 10.828125 18.851562 9.179688 C 18.851562 9.070312 18.847656 8.957031 18.835938 8.851562 C 18.671875 10.34375 17.414062 11.496094 15.875 11.496094 C 14.339844 11.496094 13.082031 10.34375 12.917969 8.851562 Z M 11.90625 16.789062 L 11.90625 17.449219 C 11.90625 18.183594 12.496094 18.773438 13.230469 18.773438 L 18.523438 18.773438 C 19.253906 18.773438 19.84375 18.183594 19.84375 17.449219 L 19.84375 16.789062 C 19.84375 17.519531 19.253906 18.109375 18.523438 18.109375 L 13.230469 18.109375 C 12.496094 18.109375 11.90625 17.519531 11.90625 16.789062 Z M 6.613281 24.066406 L 6.613281 24.726562 C 6.613281 25.460938 7.207031 26.050781 7.9375 26.050781 L 13.230469 26.050781 C 13.964844 26.050781 14.554688 25.460938 14.554688 24.726562 L 14.554688 24.066406 C 14.554688 24.796875 13.964844 25.386719 13.230469 25.386719 L 7.9375 25.386719 C 7.207031 25.386719 6.613281 24.796875 6.613281 24.066406 Z M 17.199219 24.066406 L 17.199219 24.726562 C 17.199219 25.460938 17.789062 26.050781 18.523438 26.050781 L 23.816406 26.050781 C 24.546875 26.050781 25.136719 25.460938 25.136719 24.726562 L 25.136719 24.066406 C 25.136719 24.796875 24.546875 25.386719 23.816406 25.386719 L 18.523438 25.386719 C 17.789062 25.386719 17.199219 24.796875 17.199219 24.066406 Z M 17.199219 24.066406 "/>
<path style="fill:none;stroke-width:11.338583;stroke-linecap:round;stroke-linejoin:round;stroke:rgb(12.941176%,12.941176%,12.941176%);stroke-opacity:1;stroke-miterlimit:4;" d="M 959.908345 335.164848 C 860.232823 335.164848 779.925531 415.472141 779.925531 515.147663 C 779.925531 614.823185 860.232823 695.130478 959.908345 695.130478 C 1059.820065 695.130478 1139.89116 614.823185 1139.89116 515.147663 C 1139.89116 415.472141 1059.820065 335.164848 959.908345 335.164848 Z M 800.002354 815.119021 C 755.597145 815.119021 719.931259 850.784907 719.931259 895.190115 L 719.931259 1015.178659 C 719.931259 1059.34767 755.597145 1095.013555 800.002354 1095.013555 L 1120.050535 1095.013555 C 1164.219546 1095.013555 1199.885432 1059.34767 1199.885432 1015.178659 L 1199.885432 895.190115 C 1199.885432 850.784907 1164.219546 815.119021 1120.050535 815.119021 Z M 479.954173 1255.155745 C 435.785162 1255.155745 399.883078 1290.821631 399.883078 1335.22684 L 399.883078 1455.215383 C 399.883078 1499.384394 435.785162 1535.05028 479.954173 1535.05028 L 800.002354 1535.05028 C 844.407563 1535.05028 880.073449 1499.384394 880.073449 1455.215383 L 880.073449 1335.22684 C 880.073449 1290.821631 844.407563 1255.155745 800.002354 1255.155745 Z M 1120.050535 1255.155745 C 1075.645326 1255.155745 1039.97944 1290.821631 1039.97944 1335.22684 L 1039.97944 1455.215383 C 1039.97944 1499.384394 1075.645326 1535.05028 1120.050535 1535.05028 L 1440.098716 1535.05028 C 1484.267727 1535.05028 1519.933613 1499.384394 1519.933613 1455.215383 L 1519.933613 1335.22684 C 1519.933613 1290.821631 1484.267727 1255.155745 1440.098716 1255.155745 Z M 1120.050535 1255.155745 " transform="matrix(0.016538,0,0,0.016538,0,0)"/>
</g>
</svg>
